X:52
T:Drumul Carutelor
O:rumania
C:Roemenie
M:4/4
L:1/8
Q:1/4=76
K:Am
V:1
"Am" cd ee fe ea |aa aa "Dm" ba "E7" aa |"Am" e8 :| |:"C7" ag ga/b/ "F" a4 |
"A7" gf ed "Dm" d3 f|"E7" e dc B"Am" A2 "Dm" d2 |
M:3/4
"F" cd "E7" ed cB |
M:4/4
"Am" A8 :|
V:2          %2e stem
A2 E,2 A,2 E,2 |A,2 E,2 D,2 E,2 |A,2 E,2 A,2 E,2 :| |:C,2 E,2 F,2 C,2 |
A,2 ^C,2 D,2 A,2 |E,2 ^F,^G, A,2 D,2 |
M:3/4
F,2 E,2 ^G,2 |
M:4/4
A,2 E,2 A,2 E,2 :|





